X: 6716
T: Cesar's
R: reel
M: 4/4
K: Bminor
B3G EF GF|EB BB =cB AG|A2 AF DF AD|FA DF de d=c|
B3G EF GF|EB BB =cB AG|A2 AF DF AD|1 BA GF EF GA:|2 BA GF EF GB||
eB BB e2 gf|eB BB ef ge|fd cd AG FA|DF Ad fe dB|
eB BB e2 gf|eB BB ef ge|a2 af g2 ge|1 f2 fd ed cd:|2 f2 fd ed =cA||

